!! 00053] TT[KA
!! Kassette von Frau Li Wenzhen, Peking - Zum Gesangsheft
!!!OTL: Ha you gua
!!!ARE: Asia, China,ÿHeilongjiang
!! Ethnic Group: Han
!! MM, Seite 6, 2,  und III, 80
!!!SCT: C1265
!!!YEM: Copyright 1995, estate of Helmut Schaffrath.
**kern
*ICvox
*Ivox
!! Mixed meters:  2/4; 1/4
*M1/4
*k[f#c#]
*D:
{8dd
8dd
4b
=1
4a
=2
*M2/4
4ee
4b
=3
*M1/4
4a}
=4
*M2/4
{16b
16a
8b
4a
=5
*M1/4
4a
=6
*M2/4
8e
8a
16b
16a
8b
=7
*M1/4
4a}
=8
*M2/4
{8b
16b
16a
8gg
8b
=9
*M1/4
4a
=10
*M2/4
8b
16g#
16f#
8e
8e
=11
*M1/4
4ee}
=12
*M2/4
{4b
4dd
=13
*M1/4
8a
8a
=14
*M2/4
8a
16f#
16a
16b
16a
8b
=15
*M1/4
4a
=16
*M2/4
8b
16a
16b
8dd
16b
16r
=17
*M1/4
4a}
=18
*M2/4
{8b
16g
16f#
8ee
8ee
=19
*M1/4
8.ee
16cc#
=20
*M2/4
8.ee
16cc#
4b
=21
*M1/4
4a
=22
*M2/4
4b
4a
=23
*M1/4
8a
8a}
=24
*M2/4
{8a
16f#
16a
16b
16a
8b
=25
*M1/4
4a
=26
*M2/4
8b
16a
16b
8dd
16g
16a
=27
*M1/4
4a
=28
*M2/4
8b
16b
16a
8g#
8b
=29
*M1/4
4a}
=30
*M2/4
{4ee
4b
=31
*M1/4
4a
=32
*M2/4
4dd
4a
=33
*M1/4
4a}
=34
*M2/4
{8e
16a
16a
16b
16a
8b
=35
*M1/4
4a
=36
*M2/4
8b
16a
16b
8d
16a
16b
=37
*M1/4
4a}
=38
*M2/4
{8.ee
16cc#
4b
=39
*M1/4
4a
=40
*M2/4
16b
16r
16b
16r
4a
=41
*M1/4
4a}
=42
*M2/4
{8cc#
16f#
16a
16b
16a
8b
=43
*M1/4
4a
=44
*M2/4
8b
16a
16b
8dd
16b
16r
=45
*M1/4
4a}
=46
*M2/4
{8cc#
8ee
8cc#
8ee
=47
*M1/4
8.ee
16cc#
=48
*M2/4
4b
4dd
=49
*M1/4
8a
8a}
=50
*M2/4
{8cc#
16f#
16a
16b
16b
16a
16b
=51
*M1/4
4a
=52
*M2/4
4ee
4b
=53
*M1/4
4a
=54
*M2/4
16b
16a
8b
4a
=55
*M1/4
4a}
=56
*M2/4
{8dd
16a
16dd
8b
16a
16a
=57
*M1/4
4a
=58
*M2/4
8dd
8dd
8b
16a
16f#
=59
4a}
==
!!!AGN: Haozi, Taimu haozi. Tongyi bufa, Tiaojie jingli
!! Die Stuecke sind meist uebersteuert, also verzerrt.
!!    Zweistimmig notiert, aber keine echte Zweistimmigkeit. Daher sind beide
!!    Stimmen notiert: jeder 2. T. wird von der zweiten Stimme gesungen,
!!    also meist 5__ , waehrend die andere pausiert. In den T.15/25/51 ist
!!    die uebergebundene 5, Wert 16) weggelassen, weil ansonsten nur die
!!    Oberstimme kodiert ist.
!!    Zahlreiche Verzierungen. Grundton nicht angegeben., 04=68-78)
!!    Fehlen Oktavierungspunkte, z.B. Phr.11)?
!!!ONB: ESAC (Essen Associative Code) Database: CHINA
!!!AMT: irregular
!!!AIN: vox
!!!EED: Helmut Schaffrath
!!!EEV: 1.0
*-
!!!OTL: Wo shuo laoban shi tiao niu
!!!ARE: Asia, China,ÿHubei, Jiangling
!! I, 429
!!!SCT: C1443
!!!YEM: Copyright 1995, estate of Helmut Schaffrath.
**kern
*ICvox
*Ivox
!! Mixed meters:  2/4; 3/4
*M2/4
*k[f#c#g#d#]
*E:
{16g#
16b
16cc#
16ee
8b
16cc#
16ee
=1
16cc#
16cc#
8cc#
4r}
=2
{16b
16ee
16cc#
16b
16cc#
16ee
16cc#
16b
=3
16g#
16ee
16b
16b
16g#
16ee
8cc#
=4
16g#
16ee
16cc#
16b
16g#
16ee
8cc#}
=5
{16g#
16ee
16cc#
16ee
8cc#
8b
=6
8.b
16cc#
4ff#
=7
16cc#
16ff#
8ee
8ee
16ee
16cc#
=8
8b
8cc#
4b}
=9
{8cc#
16b
16cc#
8g#
16b
16ee
=10
16cc#
16cc#
8cc#
4r
=11
*M3/4
16g#
16ee
16cc#
16ee
8cc#
8cc#
4r}
=12
*M2/4
{16g#
16ee
16b
16b
16g#
16ee
8cc#
=13
16g#
16ee
16cc#
16b
16g#
16ee
8cc#}
=14
{16cc#
16ee
16cc#
16b
8cc#
8b
=15
8.b
16cc#
4ff#
=16
8ff#
16ee
16ff#
16cc#
16ee
16ee
16cc#
=17
8b
8cc#
4b}
=18
{16cc#
16ee
16cc#
16b
16cc#
16ee
16cc#
16ee
=19
16cc#
16cc#
8cc#
4r
=20
*M3/4
16cc#
16ee
16cc#
16b
8b
8b
4r}
=21
*M2/4
{16g#
16ee
16b
16b
16g#
16ee
8cc#
=22
16g#
16ee
16cc#
16b
16g#
16ee
8cc#}
=23
{16cc#
16ee
16cc#
16ee
8b
8b
=24
8.b
16cc#
4ff#
=25
16cc#
16ff#
16cc#
16ee
16ee
16cc#
16ee
16cc#
=26
8b
8cc#
4b}
==
!!!AGN: Shange, Tiange, Haocaoge
!!!ONB: ESAC (Essen Associative Code) Database: HUANG
!!!AMT: irregular
!!!AIN: vox
!!!EED: Helmut Schaffrath
!!!EEV: 1.0
*-
